X:0999
M:C
L:1/8
Q:1/4=112
K:A Minor
e   | ab{ab}c'a  e>e   a2|g>ed>g B>GG>e      |a>b{ab}c'>a e>ea2  |g>e (e/d/c/B/) c>AA
e   | a>b{ab}c'a e>e   a2|g>ed>g B>GG>B      |c>eA>e      a>ec'>a|g>e (e/d/c/B/) cAA|]

